T:生日快乐
M:3/4
L:1/4
K:C
Q:63
C/2C/2 D C | F E2 || C/2C/2 D C | G F2 ||
C/2C/2 c A | F E2 || A/2A/2 A F | G F2 |]